X:880
T: Scartaglen Reel
T: R\'il Scairteach an Ghlinne
S: B.Breathnach: "Ceol Rince na hEireann" II/263
Z: B.Black
L: 1/8
M: 4/4
R: reel
K: G
D2 (3FED FAdB|A2 FD EB, B,2|D2 (3FED FAdB|AFDF E2 D2|
DEFA BAdB|A2 FD EB, B,2|D2 (3FED FAdB|AFDF E2 D2 ||
Adfd edfd|Adfd eB B2|Adfd edfd|AFDF E2 D2|
Adfd edfd|Adfd eBBA|fgge f2 fe|dBAF E2 D2 ||

